X: 43230
T: Within A Mile Of Dublin
R: reel
M: 4/4
K: Dmixolydian
FG|AD D2 FEFG|AD D2 c2 Bd|AD D2 FEFG|ABcA G2 FG|
AD D2 FEFG|AD D2 c2 Bd|AD D2 FEFG|ABcA G2 FG||
Addc AGFG|Adde fdec|Addc AGFG|ABcA G2 FG|
Addc AGFG|Adde f3g|af (3gfe fdec|AB (3cBA G2 FG||

